X:290
T:Old Joe Clark
S:Can't remember
Z:Nigel Gatherer <gatherer@argonet.co.uk>
M:4/4
L:1/8
K:A
z2|eAfA =gAfA|efed cAcd|eAfA =gAfA|e2 ef e2 cd|
eAfA =gAfA|efed c4|cBAc BA G2|A4-A2:|
E2|A2 AB cBcd|efed cB A2|A2 AB cB A2|=G4-G2 A2|
A2 AB cBcd|efed cB A2|cBAc BA G2|A4-A2 E2|
A2 AB cBcd|efed cB A2|A2 AB cB A2|=GFGA BA G2|
A2 AB cBcd|efed cB A2|cBAc BA G2|A4-A4|]
